images/linkedin.svg

<svg xmlns="http://www.w3.org/2000/svg" viewBox="0 0 15.69 15.01"><path d="M15.69 9.21V15h-3.37V9.59c0-1.36-.49-2.28-1.7-2.28a1.83 1.83 0 00-1.73 1.23 2.5 2.5 0 00-.11.82V15H5.42V4.88h3.36v1.44a3.34 3.34 0 013-1.67c2.22 0 3.91 1.45 3.91 4.56zM1.89 0a1.75 1.75 0 00-.27 3.5h.25A1.76 1.76 0 002.16 0zM.19 15h3.37V4.89H.19z" fill="#fff" data-name="Layer 2"/></svg>

<svg xmlns="http://www.w3.org/2000/svg" viewBox="0 0 15.69 15.01"><defs><style>.cls-1{fill:#fff;}</style></defs><g id="Layer_2" data-name="Layer 2"><g id="TEXT"><path id="LinkedIn" class="cls-1" d="M15.69,9.21V15H12.32V9.59c0-1.36-.49-2.28-1.7-2.28A1.83,1.83,0,0,0,8.89,8.54a2.5,2.5,0,0,0-.11.82V15H5.42s0-9.17,0-10.12H8.78V6.32l0,0h0v0a3.34,3.34,0,0,1,3-1.67C14,4.65,15.69,6.1,15.69,9.21ZM1.89,0A1.75,1.75,0,0,0,1.62,3.5h.25A1.76,1.76,0,0,0,2.16,0ZM.19,15H3.56V4.89H.19Z"/></g></g></svg>
